X:143
T:Dawns Hywel - Hywel's Dance
M:2/4
L:1/8
Q:220
C:Trad. arr. J.T.
R:Processional
N:Aeolian mode arrangement
K:G
GE GE | A/G/A/F/ B2 | GE GE |F/E/F/D/ E2 :|| D/E/F EG | F/
G/A G/A/B |D/E/F EG|F/G/A/F/ E2|D/E/F EG|F/G/A G/A/B|E/F/G/E/ F/G/A/F/
|GF E2||
